X: 05073
T: RED LYNNIE'S JIG
C: Bob McQuillen 20 May 81
B: Bob's Note Book 5 #73
%R: jig
Z: 2021 John Chambers <jc:trillian.mit.edu>
M: 6/8
L: 1/8
K: D
A \
| FGA GEA | GEA FDF | AFA dfa | gee e2A |\
| FGA GEA | BAG FDF | Adf gea | fdd d2 :|
|: e \
| fed fed | efd cBA | BdB A2d | BdB AFE |\
| DFA def | fed cBA | Bdf agf | edc d2 :|
%%begintext align
%% Lynne
%% Hammond has pretty red hair, and
%% I just thought she needed a tune!
%%endtext

%%sep 1 1 500

%%sep 1 1 500

